X: 11
T: The Humours Of Westmeath
R: slip jig
M: 9/8
L: 1/8
K: Dmaj
d'3 d'ag fed|d'e'c' d'af g2 e|abc' d'ag fga|=c'bc' e2 f gfe:|
d2 g fdf ecA|d2 g fdf gfe|d2 g fdf eab|=c'bc' e2 f gfe|
d2 g fdf ecA|d2 g fdf gfg|afd gec dab|=c'bc' e2 f gfe||

